build/images/icons-category/icon-audio.svg

<svg width="34" height="32" viewBox="0 0 34 32" fill="none" xmlns="http://www.w3.org/2000/svg">
<path d="M30.6 18.963V16H31.1667V14.451C31.1667 11.1093 29.9744 7.88682 27.8205 5.32089C27.8579 5.17452 27.884 5.02459 27.8834 4.87052C27.8817 4.3923 27.6879 3.936 27.3519 3.61719C24.8455 1.24267 20.247 0 17 0C13.753 0 9.1545 1.24267 6.64813 3.61659C6.3121 3.93541 6.1183 4.3923 6.1166 4.86993C6.1166 4.93156 6.1285 4.99141 6.13417 5.05244C4.00917 7.6237 2.83333 10.9446 2.83333 14.451V16H3.4V18.963C1.5249 18.963 0 20.5576 0 22.5185V28.4444C0 30.4053 1.5249 32 3.4 32H6.5246C7.92597 32 9.06667 30.8071 9.06667 29.3416V21.7997C9.06667 20.3953 8.08293 19.2344 6.8 19.0098V16H7.36667V14.451C7.36667 12.1914 8.14073 9.96148 9.48827 8.27556C9.89003 8.28207 10.2958 8.14459 10.6086 7.86193C11.887 6.704 14.9453 5.92593 17 5.92593C19.0547 5.92593 22.113 6.704 23.3914 7.86193C23.6311 8.07882 23.923 8.2163 24.2307 8.26726C25.7561 9.98815 26.6333 12.227 26.6333 14.451V16H27.2V19.0104C25.9171 19.2344 24.9333 20.3953 24.9333 21.8003V29.3422C24.9333 30.8071 26.074 32 27.4754 32H30.6C32.4751 32 34 30.4053 34 28.4444V22.5185C34 20.5576 32.4751 18.963 30.6 18.963ZM7.86137 21.3333H6.8C6.4872 21.3333 6.23333 21.5982 6.23333 21.9259C6.23333 22.2536 6.4872 22.5185 6.8 22.5185H7.93333V23.7037H6.8C6.4872 23.7037 6.23333 23.9686 6.23333 24.2963C6.23333 24.624 6.4872 24.8889 6.8 24.8889H7.93333V26.0741H6.8C6.4872 26.0741 6.23333 26.339 6.23333 26.6667C6.23333 26.9944 6.4872 27.2593 6.8 27.2593H7.93333V28.4444H6.8C6.4872 28.4444 6.23333 28.7093 6.23333 29.037C6.23333 29.3647 6.4872 29.6296 6.8 29.6296H7.90557C7.77693 30.3046 7.20687 30.8148 6.5246 30.8148H3.96667V20.1481H6.35403C7.06917 20.1481 7.66757 20.6507 7.86137 21.3333ZM6.23333 14.451V14.8148H3.96667V14.451C3.96667 11.3956 4.92943 8.49067 6.69063 6.18963L8.37817 7.81155C6.9904 9.68 6.23333 12.0113 6.23333 14.451ZM25.4734 7.94311C25.5142 7.91052 25.5533 7.87674 25.5907 7.84059L27.1677 6.32533C29.0201 8.63644 30.0333 11.4975 30.0333 14.451V14.8148H27.7667V14.451C27.7667 12.1363 26.9393 9.80919 25.4734 7.94311ZM30.0333 30.8148H27.4754C26.7926 30.8148 26.2231 30.3046 26.0944 29.6296H27.2C27.5128 29.6296 27.7667 29.3647 27.7667 29.037C27.7667 28.7093 27.5128 28.4444 27.2 28.4444H26.0667V27.2593H27.2C27.5128 27.2593 27.7667 26.9944 27.7667 26.6667C27.7667 26.339 27.5128 26.0741 27.2 26.0741H26.0667V24.8889H27.2C27.5128 24.8889 27.7667 24.624 27.7667 24.2963C27.7667 23.9686 27.5128 23.7037 27.2 23.7037H26.0667V22.5185H27.2C27.5128 22.5185 27.7667 22.2536 27.7667 21.9259C27.7667 21.5982 27.5128 21.3333 27.2 21.3333H26.1386C26.3324 20.6507 26.9308 20.1481 27.646 20.1481H30.0333V30.8148Z" fill="white"/>
</svg>

<svg width="34" height="32" fill="none" xmlns="http://www.w3.org/2000/svg"><path d="M30.6 18.963V16h.567v-1.549c0-3.342-1.193-6.564-3.347-9.13a1.74 1.74 0 00.063-.45 1.739 1.739 0 00-.531-1.254C24.846 1.243 20.247 0 17 0S9.155 1.243 6.648 3.617a1.74 1.74 0 00-.531 1.253c0 .062.011.121.017.182-2.125 2.572-3.3 5.893-3.3 9.399V16H3.4v2.963c-1.875 0-3.4 1.595-3.4 3.555v5.926C0 30.405 1.525 32 3.4 32h3.125c1.401 0 2.542-1.193 2.542-2.658V21.8c0-1.405-.984-2.566-2.267-2.79V16h.567v-1.549c0-2.26.774-4.49 2.121-6.175a1.63 1.63 0 001.12-.414c1.28-1.158 4.338-1.936 6.392-1.936 2.055 0 5.113.778 6.391 1.936.24.217.532.354.84.405 1.525 1.721 2.402 3.96 2.402 6.184V16h.567v3.01c-1.283.224-2.267 1.385-2.267 2.79v7.542c0 1.465 1.141 2.658 2.542 2.658H30.6c1.875 0 3.4-1.595 3.4-3.556V22.52c0-1.961-1.525-3.556-3.4-3.556zm-22.739 2.37H6.8a.58.58 0 00-.567.593.58.58 0 00.567.593h1.133v1.185H6.8a.58.58 0 00-.567.592.58.58 0 00.567.593h1.133v1.185H6.8a.58.58 0 00-.567.593.58.58 0 00.567.592h1.133v1.185H6.8a.58.58 0 00-.567.593.58.58 0 00.567.593h1.106c-.13.675-.7 1.185-1.381 1.185H3.967V20.148h2.387c.715 0 1.314.503 1.507 1.185zm-1.628-6.882v.364H3.967v-.364c0-3.055.962-5.96 2.724-8.261l1.687 1.622c-1.388 1.868-2.145 4.2-2.145 6.639zm19.24-6.508c.041-.032.08-.066.118-.102l1.577-1.516a12.99 12.99 0 012.865 8.126v.364h-2.266v-.364c0-2.315-.828-4.642-2.294-6.508zm4.56 22.872h-2.558c-.682 0-1.252-.51-1.38-1.185H27.2a.58.58 0 00.567-.593.58.58 0 00-.567-.593h-1.133V27.26H27.2a.58.58 0 00.567-.592.58.58 0 00-.567-.593h-1.133V24.89H27.2a.58.58 0 00.567-.593.58.58 0 00-.567-.592h-1.133v-1.186H27.2a.58.58 0 00.567-.592.58.58 0 00-.567-.593h-1.061c.193-.682.792-1.185 1.507-1.185h2.387v10.667z" fill="#fff"/></svg>
